polaris-icons/icons/new-icons/KeyMajor.svg

<svg width="20" height="20" viewBox="0 0 20 20" fill="none" xmlns="http://www.w3.org/2000/svg">
<path d="M10 7.75C10.5523 7.75 11 7.30228 11 6.75C11 6.19772 10.5523 5.75 10 5.75C9.44772 5.75 9 6.19772 9 6.75C9 7.30228 9.44772 7.75 10 7.75Z" fill="#4A4A4A"/>
<path fill-rule="evenodd" clip-rule="evenodd" d="M8.85 2.75C6.44756 2.75 4.5 4.69756 4.5 7.1C4.5 8.6662 5.55899 9.98507 7 10.3796V13.815C7 14.2925 7.17079 14.7541 7.48149 15.1166L8.55085 16.3642C9.24562 17.1748 10.4545 17.2968 11.2972 16.6413L12.606 15.6234C13.499 14.9288 13.608 13.6835 12.982 12.8469C13.5305 12.1457 13.5638 11.1235 12.9842 10.3839C14.4333 9.99468 15.5 8.67191 15.5 7.1C15.5 4.69756 13.5524 2.75 11.15 2.75H8.85ZM11.6851 14.4394C11.9299 14.249 11.939 13.893 11.7286 13.6877C11.721 13.6803 11.7129 13.6729 11.7047 13.6658C11.6857 13.6496 11.6652 13.6345 11.6431 13.6207L11.006 13.2225C10.6749 13.0156 10.6982 12.5259 11.0474 12.3513L11.6295 12.0602C11.9348 11.9076 12.0008 11.5008 11.7595 11.2595L11.1464 10.6464C11.0527 10.5527 11 10.4255 11 10.2929V9.5C11 9.22386 11.2239 9 11.5 9H12.1C13.1493 9 14 8.14934 14 7.1C14 5.52599 12.724 4.25 11.15 4.25H8.85C7.27599 4.25 6 5.52599 6 7.1C6 8.14934 6.85066 9 7.9 9H8C8.27614 9 8.5 9.22386 8.5 9.5V13.815C8.5 13.9344 8.5427 14.0498 8.62037 14.1404L9.68973 15.388C9.86342 15.5907 10.1657 15.6212 10.3763 15.4573L11.6851 14.4394Z" fill="#4A4A4A"/>
</svg>

<svg viewBox="0 0 20 20" xmlns="http://www.w3.org/2000/svg"><path d="M10 7.75a1 1 0 1 0 0-2 1 1 0 0 0 0 2Z" fill="#5C5F62"/><path fill-rule="evenodd" d="M8.85 2.75a4.35 4.35 0 0 0-4.35 4.35 3.401 3.401 0 0 0 2.5 3.28v3.435a2 2 0 0 0 .481 1.302l1.07 1.247a2 2 0 0 0 2.746.277l1.309-1.018a2.002 2.002 0 0 0 .376-2.776 2.004 2.004 0 0 0 .002-2.463 3.401 3.401 0 0 0 2.516-3.284 4.35 4.35 0 0 0-4.35-4.35h-2.3Zm2.835 11.69a.5.5 0 0 0-.042-.82l-.637-.397a.5.5 0 0 1 .041-.872l.582-.29a.5.5 0 0 0 .13-.802l-.613-.613a.5.5 0 0 1-.146-.353v-.793a.5.5 0 0 1 .5-.5h.6a1.9 1.9 0 0 0 1.9-1.9 2.85 2.85 0 0 0-2.85-2.85h-2.3a2.85 2.85 0 0 0-2.85 2.85c0 1.05.85 1.9 1.9 1.9h.1a.5.5 0 0 1 .5.5v4.315a.5.5 0 0 0 .12.325l1.07 1.248a.5.5 0 0 0 .686.07l1.31-1.019Z" fill="#5C5F62"/></svg>
